src/svg/featured/alibaba.svg

<svg fill="none" height="72" viewBox="0 0 161 72" width="161" xmlns="http://www.w3.org/2000/svg"><g fill="#fff"><path clip-rule="evenodd" d="m51.0707 45.0046c10.2134-.3833 16.7678-3.1499 23.6199-6.6821.0423 0-18.9378 5.4054-25.9609 1.4476h.0432c-.3833-.0854-.9366-.3832-1.3622-.7243-3.8732-3.7022 1.0644-8.0433 6.7667-10.5534v-7.15c.0003.0002-.0003-.0001 0 0v7.15c-5.7023 2.5101-10.6399 6.8512-6.7667 10.5534.4256.3411.9789.6389 1.3622.7243-.7666-.4255-1.5746-.9798-1.7869-2.5542-.0423-3.2767 5.4468-6.6821 8.5544-7.7456v-5.5322c6.3411 2.2123 13.7888 1.5312 20.1299-3.1499.2978.511.4678 1.3189.3401 2h1.1066c.2978-2.2133-1.2767-4.3401-3.66-4.5111.2115.1986.4065.3725.584.5306.3933.3506.6998.6238.905.9171 0 .0598-.0625.0989-.1145.1314-.0224.014-.0428.0268-.0555.0396-7.9731 5.5605-15.5923 3.3041-16.8581 2.9292-.0517-.0153-.0928-.0275-.1229-.0358l4.512-4.4689-1.1921-3.2335c9.0654-3.1489 16.7255-5.53221 29.1521-7.70321l-2.7666-2.29783 1.4054-.89339c7.5621 2.12454 12.4542 3.65535 12.1732 7.55763-.139.6828-.39 1.4367-.768 2.2725-1.9482 3.8557-7.3535 10.0071-10.3198 13.3827-.3401.387-.6481.7376-.9152 1.044-1.7445 2-3.4477 3.9577-4.6821 5.7877-1.2335 1.83-2.0423 3.5755-2.0846 5.1922.2133 12.9791 38.5987-6.0433 45.9197-11.0222-10.895 4.6811-22.769 9.1932-35.7495 10.0424-3.5745.1287-3.2354-1.7003-1.1066-4.5524 1.2234-1.6381 2.7232-3.4383 4.2894-5.3183 4.7007-5.6422 9.9997-12.0028 10.2237-16.8549.551-8.38435-8.002-11.150004-16.811-11.065456-6.0855.043214-12.5131 1.829996-16.7686 3.319916-14.9369 5.23446-24.301 13.61884-30.1733 22.85334-6.2556 9.1499-4.2133 17.9166 8.9376 18.1731zm50.0343-33.3865c.227-1.2324.082-2.22937-.349-3.05665.419.82565.559 1.82135.349 3.05665zm-15.4704-6.82525 1.8228 1.69639c-10.3412 1.7445-15.4911 3.44674-28.2588 7.87326l1.4477 3.66-4.3406 4.3406c-.0001-.0002.0001.0002 0 0l4.3406-4.3406-1.4477-3.66c12.7677-4.42558 17.9175-6.1278 28.3009-7.87324z" fill-rule="evenodd"/><path d="m30.9408 53.8145v3.319h4.8521v-3.319z"/><path d="m31.154 58.9644v11.8292h4.5111v-11.8292z"/><path clip-rule="evenodd" d="m138.911 64.709c0 3.5322-2.851 6.3833-6.341 6.3833-.838.0012-1.669-.1632-2.444-.4836s-1.479-.7905-2.072-1.3835-1.063-1.2971-1.383-2.0721c-.321-.775-.485-1.6055-.484-2.4441 0-3.49 2.851-6.3411 6.383-6.3411 3.49 0 6.341 2.8511 6.341 6.3411zm-2 0c0-2.3833-1.957-4.3411-4.341-4.3411-.57-.0011-1.135.1104-1.662.3282-.527.2177-1.006.5375-1.41.9408-.403.4033-.723.8823-.941 1.4095-.217.5272-.329 1.0922-.328 1.6626-.005.5714.104 1.138.321 1.6668.216.5289.536 1.0093.94 1.4134.404.404.885.7236 1.413.9401.529.2165 1.096.3255 1.667.3207.571.0011 1.136-.1104 1.663-.3281.527-.2178 1.006-.5375 1.409-.9408.404-.4034.723-.8824.941-1.4096.218-.5271.329-1.0921.328-1.6625z" fill-rule="evenodd"/><path d="m111.377 70.7936h-2v-1.829h2z"/><path d="m124.461 69.3577c.038-.0333.074-.0649.108-.0944l-.018-.0335c-.215-.3843-.545-.9768-.833-2.0107-.978 1.2767-2.255 1.8732-3.574 1.8732-2.384 0-4.341-2-4.341-4.3833 0-2.3411 1.957-4.3411 4.341-4.3411.893 0 2.341.2546 3.532 1.8713.024-.0667.052-.1455.083-.2332.185-.5269.482-1.3717.81-1.8091l-.024-.0211c-.651-.5631-2.09-1.8079-4.401-1.8079-3.235 0-6.342 2.5543-6.342 6.3411 0 3.8291 3.107 6.3833 6.342 6.3833 2.336 0 3.642-1.1438 4.317-1.7346z"/><path d="m141.762 58.9644v11.8292h2.001v-6.126c0-1.1066.127-1.9154.341-2.512.213-.5524.552-.9779 1.022-1.2766.51-.2969 1.02-.4679 1.572-.4679.725 0 1.278.2555 1.619.6811.297.4256.468 1.1066.468 2v7.7023h2v-6.8934c0-1.1912.297-2.0846.851-2.6389.554-.5542 1.235-.8511 2.042-.8511.435-.0046.863.1136 1.235.341.317.1978.557.4981.681.8511.128.3392.213.9357.213 1.7446v7.4458h2v-8.1279c0-1.3612-.339-2.3391-.978-3.0202-.597-.6388-1.532-.9798-2.681-.9798-1.489 0-2.724.7233-3.66 2.0864-.213-.6388-.639-1.1508-1.193-1.5322-.553-.341-1.276-.5542-2.127-.5542-.746-.0045-1.48.1866-2.129.5542-.603.3395-1.115.8213-1.49 1.4035v-1.659z"/><path d="m157.041 54.1114v2.2564h.339v-2.2564h.852v-.2969h-2.042v.2969z"/><path d="m158.531 53.8136v2.5542h.341v-2.171l.724 2.171h.34l.723-2.1287v2.1287h.341v-2.5542h-.468l-.596 1.7867c-.085.171-.129.341-.129.4256-.042-.0846-.085-.2123-.127-.3833l-.639-1.829z"/><g clip-rule="evenodd" fill-rule="evenodd"><path d="m98.7783 70.5381c.9351-.3389 1.6597-.8504 2.1277-1.4868v.2111c.005.2709.033.5408.085.8069.045.248.116.4905.213.7234h4.214c-.086-.2114-.129-.4669-.171-.7234-.044-.2123-.044-.51-.044-.8509v-6.0003c0-1.5745-.552-2.6811-1.617-3.4477-1.02-.7233-2.681-1.1066-4.8932-1.1066-.2132 0-.3833 0-.5542.0423-2.0414.0422-3.6159.341-4.6802.8934-1.1489.6388-1.831 1.5763-1.9578 2.853h4.5543c.0846-.4697.3401-.8511.7234-1.0644.3391-.17.7647-.2987 1.3612-.341h.4678c.7253 0 1.2777.171 1.6607.5101.384.341.553.8089.553 1.4477v.3419h-2.6805c-1.6168 0-2.8098.0846-3.5745.1691-.8512.1287-1.5322.342-2.0001.6388-.5965.3833-1.0643.8511-1.3631 1.4054-.2968.5524-.4678 1.1912-.4678 1.9155 0 1.1489.3833 2.0423 1.2344 2.6388.8088.6369 1.9578.9357 3.4477.9357 1.0202 0 1.9136-.0836 2.7224-.2988.2191-.051.433-.1224.6388-.2132zm1.2357-2.7657c-.4682.4265-1.107.6388-1.8735.7234l-.4265-.0009c-.7647 0-1.319-.1278-1.7023-.3392-.3814-.2132-.5523-.5543-.5523-.9798 0-.5956.34-1.0221 1.0643-1.2767.5243-.1666 1.0675-.2663 1.6168-.2968.6378-.0846 1.4053-.0846 2.2985-.0846h.382v.2546c0 .8934-.297 1.5745-.807 2z"/><path d="m83.074 58.6647c-.6379 0-1.2767.0423-1.829.2133-.333.0413-.6239.1649-.9172.2897l-.0213.009c-.8493.2988-1.6168.8089-2.2978 1.4899v-6.8512h-4.5112v14.3009c0 .3814 0 .8069-.0413 1.2748-.0423.4255-.0855.8933-.1278 1.4034h4.5544c.0422-.2968.0845-.6369.0845-.9356.0423-.2969.0423-.5947.0423-.9357v-.3391c.6388.807 1.3621 1.4035 2.2555 1.829.3079.1709.6375.2992.9799.3814.5946.172 1.2325.2565 1.9154.2565 1.8714 0 3.3613-.5542 4.4257-1.6609 1.022-1.1066 1.5744-2.6388 1.5744-4.5966 0-1.9136-.5524-3.4035-1.6609-4.4679-1.0625-1.1066-2.5524-1.6609-4.4256-1.6609zm.5552 3.3199c.5965.6389.8934 1.49.8934 2.5543 0 1.1903-.2978 2.1278-.8934 2.8089-.5543.6388-1.3612.9779-2.3833.9779h-.0423c-1.0221 0-1.7896-.2968-2.3842-.9356-.5533-.6388-.8512-1.5322-.8512-2.6811 0-1.1922.2979-2.1278.8512-2.7244.5533-.6388 1.3621-.9356 2.4265-.9356h.0423c.9798 0 1.7445.2968 2.341.9356z"/><path d="m63.9662 70.5381c.9779-.3391 1.6599-.8511 2.17-1.4881l.001.2124c0 .2922.0419.5444.0835.795l.002.0119c.0422.2574.0854.512.2123.7234h4.2133c-.0855-.2114-.171-.4669-.2133-.7234 0-.0936-.0082-.2039-.0174-.3272-.0116-.1562-.0248-.3333-.0248-.5239v-6.0001c0-1.5745-.5111-2.6811-1.5755-3.4477-1.0643-.7233-2.6811-1.1066-4.9366-1.1066-.171 0-.3401 0-.5533.0423-2.0433.0422-3.5755.341-4.6389.8934-1.1912.6388-1.8291 1.5763-2 2.853h4.5966c.0854-.4697.2987-.8511.7243-1.0644.2977-.17.7656-.2987 1.3189-.341h.5111c.7224 0 1.2757.171 1.659.5101.34.341.5533.8089.5533 1.4477v.1709c-.0432.0423-.0432.1269-.0432.171h-2.6811c-1.5755 0-2.7666.0846-3.5755.1691-.8511.1287-1.489.342-1.9577.6388-.5956.3833-1.0635.8511-1.3613 1.4054-.341.5524-.511 1.1912-.511 1.9155 0 1.1489.4256 2.0423 1.2344 2.6388.8088.6369 2 .9357 3.49.9357.9788 0 1.9154-.0836 2.6811-.2988.2226-.0379.438-.1098.6388-.2132zm1.2353-2.7657c-.4265.4265-1.0653.6388-1.8732.7234l-.4256-.0009c-.7656 0-1.3189-.1278-1.7022-.3392-.3401-.2132-.5533-.5543-.5533-.9798 0-.5956.3833-1.0221 1.1066-1.2767.5097-.1672 1.039-.267 1.5745-.2968.6388-.0846 1.4467-.0846 2.341-.0846h.3401v.2546c0 .8934-.2555 1.5745-.8079 2z"/><path d="m48.3041 58.6647c-.6801 0-1.2766.0423-1.8722.2133-.2978.0422-.6379.171-.9357.2987-.8088.2988-1.5745.8089-2.2556 1.4899v-6.8512h-4.5111v14.3009c0 .3397-.0342.7145-.0716 1.123-.0046.0501-.0092.1007-.0138.1518-.0039.4705-.0466.9399-.1278 1.4034h4.5534c.0237-.1629.0471-.3388.0704-.5137.0192-.1439.0383-.2871.0573-.4219 0-.1433.0099-.2868.0201-.4353.0109-.1591.0222-.324.0222-.5004v-.3391c.5956.807 1.3612 1.4035 2.2133 1.829.3139.1569.6416.2846.9789.3814.6378.172 1.2766.2565 1.9577.2565 1.8732 0 3.3199-.5542 4.3834-1.6609 1.0643-1.1066 1.5754-2.6388 1.5754-4.5966 0-1.9136-.5543-3.4035-1.6177-4.4679-1.1067-1.1066-2.5534-1.6609-4.4266-1.6609zm.5543 3.3199c.5965.6389.8511 1.49.8511 2.5543 0 1.1903-.2555 2.1278-.8511 2.8089-.5543.6388-1.3631.9779-2.4265.9779-1.0212 0-1.831-.2968-2.3834-.9356-.5955-.6388-.8511-1.5322-.8511-2.6811 0-1.1922.2556-2.1278.8511-2.7244.5534-.6388 1.3622-.9356 2.3834-.9356h.0854c.9789 0 1.7446.2968 2.3411.9356z"/><path d="m14.5563 53.8145h-5.7464l-8.8099 16.9791h5.10764l1.57447-3.4458h9.23639l1.489 3.4458h5.4468zm-.2132 10.2566-6.08652-.0009 3.06342-6.2143.1287-.2969z"/></g><path d="m23.6218 53.8145v16.9791h4.5101v-16.9791z"/></g></svg>

<svg width="161" height="72" viewBox="0 0 161 72" fill="none" xmlns="http://www.w3.org/2000/svg">
<path fill-rule="evenodd" clip-rule="evenodd" d="M51.0707 45.0046C61.2841 44.6213 67.8385 41.8547 74.6906 38.3225C74.7329 38.3225 55.7528 43.7279 48.7297 39.7701H48.7729C48.3896 39.6847 47.8363 39.3869 47.4107 39.0458C43.5375 35.3436 48.4751 31.0025 54.1774 28.4924V21.3424C54.1777 21.3426 54.1771 21.3423 54.1774 21.3424V28.4924C48.4751 31.0025 43.5375 35.3436 47.4107 39.0458C47.8363 39.3869 48.3896 39.6847 48.7729 39.7701C48.0063 39.3446 47.1983 38.7903 46.986 37.2159C46.9437 33.9392 52.4328 30.5338 55.5404 29.4703V23.9381C61.8815 26.1504 69.3292 25.4693 75.6703 20.7882C75.9681 21.2992 76.1381 22.1071 76.0104 22.7882H77.117C77.4148 20.5749 75.8403 18.4481 73.457 18.2771C73.6685 18.4757 73.8635 18.6496 74.041 18.8077C74.4343 19.1583 74.7408 19.4315 74.946 19.7248C74.946 19.7846 74.8835 19.8237 74.8315 19.8562C74.8091 19.8702 74.7887 19.883 74.776 19.8958C66.8029 25.4563 59.1837 23.1999 57.9179 22.825C57.8662 22.8097 57.8251 22.7975 57.795 22.7892L62.307 18.3203L61.1149 15.0868C70.1803 11.9379 77.8404 9.55459 90.267 7.38359L87.5004 5.08576L88.9058 4.19237C96.4679 6.31691 101.36 7.84772 101.079 11.75C100.94 12.4328 100.689 13.1867 100.311 14.0225C98.3628 17.8782 92.9575 24.0296 89.9912 27.4052C89.6511 27.7922 89.3431 28.1428 89.076 28.4492C87.3315 30.4492 85.6283 32.4069 84.3939 34.2369C83.1604 36.0669 82.3516 37.8124 82.3093 39.4291C82.5226 52.4082 120.908 33.3858 128.229 28.4069C117.334 33.088 105.46 37.6001 92.4795 38.4493C88.905 38.578 89.2441 36.749 91.3729 33.8969C92.5963 32.2588 94.0961 30.4586 95.6623 28.5786C100.363 22.9364 105.662 16.5758 105.886 11.7237C106.437 3.33935 97.884 0.573696 89.075 0.658244C82.9895 0.701458 76.5619 2.48824 72.3064 3.97816C57.3695 9.21262 48.0054 17.597 42.1331 26.8315C35.8775 35.9814 37.9198 44.7481 51.0707 45.0046ZM101.105 11.6181C101.332 10.3857 101.187 9.38873 100.756 8.56145C101.175 9.3871 101.315 10.3828 101.105 11.6181ZM85.6346 4.79285L87.4574 6.48924C77.1162 8.23374 71.9663 9.93598 59.1986 14.3625L60.6463 18.0225L56.3057 22.3631C56.3056 22.3629 56.3058 22.3633 56.3057 22.3631L60.6463 18.0225L59.1986 14.3625C71.9663 9.93692 77.1161 8.2347 87.4995 6.48926L85.6346 4.79285Z" fill="white"/>
<path d="M30.9408 53.8145V57.1335H35.7929V53.8145H30.9408Z" fill="white"/>
<path d="M31.154 58.9644V70.7936H35.6651V58.9644H31.154Z" fill="white"/>
<path fill-rule="evenodd" clip-rule="evenodd" d="M138.911 64.709C138.911 68.2412 136.06 71.0923 132.57 71.0923C131.732 71.0935 130.901 70.9291 130.126 70.6087C129.351 70.2883 128.647 69.8182 128.054 69.2252C127.461 68.6322 126.991 67.9281 126.671 67.1531C126.35 66.3781 126.186 65.5476 126.187 64.709C126.187 61.219 129.038 58.3679 132.57 58.3679C136.06 58.3679 138.911 61.219 138.911 64.709ZM136.911 64.709C136.911 62.3257 134.954 60.3679 132.57 60.3679C132 60.3668 131.435 60.4783 130.908 60.6961C130.381 60.9138 129.902 61.2336 129.498 61.6369C129.095 62.0402 128.775 62.5192 128.557 63.0464C128.34 63.5736 128.228 64.1386 128.229 64.709C128.224 65.2804 128.333 65.847 128.55 66.3758C128.766 66.9047 129.086 67.3851 129.49 67.7892C129.894 68.1932 130.375 68.5128 130.903 68.7293C131.432 68.9458 131.999 69.0548 132.57 69.05C133.141 69.0511 133.706 68.9396 134.233 68.7219C134.76 68.5041 135.239 68.1844 135.642 67.7811C136.046 67.3777 136.365 66.8987 136.583 66.3715C136.801 65.8444 136.912 65.2794 136.911 64.709Z" fill="white"/>
<path d="M111.377 70.7936H109.377V68.9646H111.377V70.7936Z" fill="white"/>
<path d="M124.461 69.3577C124.499 69.3244 124.535 69.2928 124.569 69.2633L124.551 69.2298C124.336 68.8455 124.006 68.253 123.718 67.2191C122.74 68.4958 121.463 69.0923 120.144 69.0923C117.76 69.0923 115.803 67.0923 115.803 64.709C115.803 62.3679 117.76 60.3679 120.144 60.3679C121.037 60.3679 122.485 60.6225 123.676 62.2392C123.7 62.1725 123.728 62.0937 123.759 62.006C123.944 61.4791 124.241 60.6343 124.569 60.1969L124.545 60.1758C123.894 59.6127 122.455 58.3679 120.144 58.3679C116.909 58.3679 113.802 60.9222 113.802 64.709C113.802 68.5381 116.909 71.0923 120.144 71.0923C122.48 71.0923 123.786 69.9485 124.461 69.3577Z" fill="white"/>
<path d="M141.762 58.9644V70.7936H143.763V64.6676C143.763 63.561 143.89 62.7522 144.104 62.1556C144.317 61.6032 144.656 61.1777 145.126 60.879C145.636 60.5821 146.146 60.4111 146.698 60.4111C147.423 60.4111 147.976 60.6666 148.317 61.0922C148.614 61.5178 148.785 62.1988 148.785 63.0922V70.7945H150.785V63.9011C150.785 62.7099 151.082 61.8165 151.636 61.2622C152.19 60.708 152.871 60.4111 153.678 60.4111C154.113 60.4065 154.541 60.5247 154.913 60.7521C155.23 60.9499 155.47 61.2502 155.594 61.6032C155.722 61.9424 155.807 62.5389 155.807 63.3478V70.7936H157.807V62.6657C157.807 61.3045 157.468 60.3266 156.829 59.6455C156.232 59.0067 155.297 58.6657 154.148 58.6657C152.659 58.6657 151.424 59.389 150.488 60.7521C150.275 60.1133 149.849 59.6013 149.295 59.2199C148.742 58.8789 148.019 58.6657 147.168 58.6657C146.422 58.6612 145.688 58.8523 145.039 59.2199C144.436 59.5594 143.924 60.0412 143.549 60.6234V58.9644H141.762Z" fill="white"/>
<path d="M157.041 54.1114V56.3678H157.38V54.1114H158.232V53.8145H156.19V54.1114H157.041Z" fill="white"/>
<path d="M158.531 53.8136V56.3678H158.872V54.1968L159.596 56.3678H159.936L160.659 54.2391V56.3678H161V53.8136H160.532L159.936 55.6003C159.851 55.7713 159.807 55.9413 159.807 56.0259C159.765 55.9413 159.722 55.8136 159.68 55.6426L159.041 53.8136H158.531Z" fill="white"/>
<path fill-rule="evenodd" clip-rule="evenodd" d="M98.7783 70.5381C99.7134 70.1992 100.438 69.6877 100.906 69.0513V69.2624C100.911 69.5333 100.939 69.8032 100.991 70.0693C101.036 70.3173 101.107 70.5598 101.204 70.7927H105.418C105.332 70.5813 105.289 70.3258 105.247 70.0693C105.203 69.857 105.203 69.5593 105.203 69.2184V63.2181C105.203 61.6436 104.651 60.537 103.586 59.7704C102.566 59.0471 100.905 58.6638 98.6928 58.6638C98.4796 58.6638 98.3095 58.6638 98.1386 58.7061C96.0972 58.7483 94.5227 59.0471 93.4584 59.5995C92.3095 60.2383 91.6274 61.1758 91.5006 62.4525H96.0549C96.1395 61.9828 96.395 61.6014 96.7783 61.3881C97.1174 61.2181 97.543 61.0894 98.1395 61.0471H98.6073C99.3326 61.0471 99.885 61.2181 100.268 61.5572C100.652 61.8982 100.821 62.3661 100.821 63.0049V63.3468H98.1405C96.5237 63.3468 95.3307 63.4314 94.566 63.5159C93.7148 63.6446 93.0338 63.8579 92.5659 64.1547C91.9694 64.538 91.5016 65.0058 91.2028 65.5601C90.906 66.1125 90.735 66.7513 90.735 67.4756C90.735 68.6245 91.1183 69.5179 91.9694 70.1144C92.7782 70.7513 93.9272 71.0501 95.4171 71.0501C96.4373 71.0501 97.3307 70.9665 98.1395 70.7513C98.3586 70.7003 98.5725 70.6289 98.7783 70.5381ZM100.014 67.7724C99.5458 68.1989 98.907 68.4112 98.1405 68.4958L97.714 68.4949C96.9493 68.4949 96.395 68.3671 96.0117 68.1557C95.6303 67.9425 95.4594 67.6014 95.4594 67.1759C95.4594 66.5803 95.7994 66.1538 96.5237 65.8992C97.048 65.7326 97.5912 65.6329 98.1405 65.6024C98.7783 65.5178 99.5458 65.5178 100.439 65.5178H100.821V65.7724C100.821 66.6658 100.524 67.3469 100.014 67.7724Z" fill="white"/>
<path fill-rule="evenodd" clip-rule="evenodd" d="M83.074 58.6647C82.4361 58.6647 81.7973 58.707 81.245 58.878C80.912 58.9193 80.6211 59.0429 80.3278 59.1677L80.3065 59.1767C79.4572 59.4755 78.6897 59.9856 78.0087 60.6666V53.8154H73.4975V68.1163C73.4975 68.4977 73.4975 68.9232 73.4562 69.3911C73.4139 69.8166 73.3707 70.2844 73.3284 70.7945H77.8828C77.925 70.4977 77.9673 70.1576 77.9673 69.8589C78.0096 69.562 78.0096 69.2642 78.0096 68.9232V68.5841C78.6484 69.3911 79.3717 69.9876 80.2651 70.4131C80.573 70.584 80.9026 70.7123 81.245 70.7945C81.8396 70.9665 82.4775 71.051 83.1604 71.051C85.0318 71.051 86.5217 70.4968 87.5861 69.3901C88.6081 68.2835 89.1605 66.7513 89.1605 64.7935C89.1605 62.8799 88.6081 61.39 87.4996 60.3256C86.4371 59.219 84.9472 58.6647 83.074 58.6647ZM83.6292 61.9846C84.2257 62.6235 84.5226 63.4746 84.5226 64.5389C84.5226 65.7292 84.2248 66.6667 83.6292 67.3478C83.0749 67.9866 82.268 68.3257 81.2459 68.3257H81.2036C80.1815 68.3257 79.414 68.0289 78.8194 67.3901C78.2661 66.7513 77.9682 65.8579 77.9682 64.709C77.9682 63.5168 78.2661 62.5812 78.8194 61.9846C79.3727 61.3458 80.1815 61.049 81.2459 61.049H81.2882C82.268 61.049 83.0327 61.3458 83.6292 61.9846Z" fill="white"/>
<path fill-rule="evenodd" clip-rule="evenodd" d="M63.9662 70.5381C64.9441 70.199 65.6261 69.687 66.1362 69.05L66.1372 69.2624C66.1372 69.5546 66.1791 69.8068 66.2207 70.0574L66.2227 70.0693C66.2649 70.3267 66.3081 70.5813 66.435 70.7927H70.6483C70.5628 70.5813 70.4773 70.3258 70.435 70.0693C70.435 69.9757 70.4268 69.8654 70.4176 69.7421C70.406 69.5859 70.3928 69.4088 70.3928 69.2182V63.2181C70.3928 61.6436 69.8817 60.537 68.8173 59.7704C67.753 59.0471 66.1362 58.6638 63.8807 58.6638C63.7097 58.6638 63.5406 58.6638 63.3274 58.7061C61.2841 58.7483 59.7519 59.0471 58.6885 59.5995C57.4973 60.2383 56.8594 61.1758 56.6885 62.4525H61.2851C61.3705 61.9828 61.5838 61.6014 62.0094 61.3881C62.3071 61.2181 62.775 61.0894 63.3283 61.0471H63.8394C64.5618 61.0471 65.1151 61.2181 65.4984 61.5572C65.8384 61.8982 66.0517 62.3661 66.0517 63.0049V63.1758C66.0085 63.2181 66.0085 63.3027 66.0085 63.3468H63.3274C61.7519 63.3468 60.5608 63.4314 59.7519 63.5159C58.9008 63.6446 58.2629 63.8579 57.7942 64.1547C57.1986 64.538 56.7307 65.0058 56.4329 65.5601C56.0919 66.1125 55.9219 66.7513 55.9219 67.4756C55.9219 68.6245 56.3475 69.5179 57.1563 70.1144C57.9651 70.7513 59.1563 71.0501 60.6463 71.0501C61.6251 71.0501 62.5617 70.9665 63.3274 70.7513C63.55 70.7134 63.7654 70.6415 63.9662 70.5381ZM65.2015 67.7724C64.775 68.1989 64.1362 68.4112 63.3283 68.4958L62.9027 68.4949C62.1371 68.4949 61.5838 68.3671 61.2005 68.1557C60.8604 67.9425 60.6472 67.6014 60.6472 67.1759C60.6472 66.5803 61.0305 66.1538 61.7538 65.8992C62.2635 65.732 62.7928 65.6322 63.3283 65.6024C63.9671 65.5178 64.775 65.5178 65.6693 65.5178H66.0094V65.7724C66.0094 66.6658 65.7539 67.3469 65.2015 67.7724Z" fill="white"/>
<path fill-rule="evenodd" clip-rule="evenodd" d="M48.3041 58.6647C47.624 58.6647 47.0275 58.707 46.4319 58.878C46.1341 58.9202 45.794 59.049 45.4962 59.1767C44.6874 59.4755 43.9217 59.9856 43.2406 60.6666V53.8154H38.7295V68.1163C38.7295 68.456 38.6953 68.8308 38.6579 69.2393C38.6533 69.2894 38.6487 69.34 38.6441 69.3911C38.6402 69.8616 38.5975 70.331 38.5163 70.7945H43.0697C43.0934 70.6316 43.1168 70.4557 43.1401 70.2808C43.1593 70.1369 43.1784 69.9937 43.1974 69.8589C43.1974 69.7156 43.2073 69.5721 43.2175 69.4236C43.2284 69.2645 43.2397 69.0996 43.2397 68.9232V68.5841C43.8353 69.3911 44.6009 69.9876 45.453 70.4131C45.7669 70.57 46.0946 70.6977 46.4319 70.7945C47.0697 70.9665 47.7085 71.051 48.3896 71.051C50.2628 71.051 51.7095 70.4968 52.773 69.3901C53.8373 68.2835 54.3484 66.7513 54.3484 64.7935C54.3484 62.8799 53.7941 61.39 52.7307 60.3256C51.624 59.219 50.1773 58.6647 48.3041 58.6647ZM48.8584 61.9846C49.4549 62.6235 49.7095 63.4746 49.7095 64.5389C49.7095 65.7292 49.454 66.6667 48.8584 67.3478C48.3041 67.9866 47.4953 68.3257 46.4319 68.3257C45.4107 68.3257 44.6009 68.0289 44.0485 67.3901C43.453 66.7513 43.1974 65.8579 43.1974 64.709C43.1974 63.5168 43.453 62.5812 44.0485 61.9846C44.6019 61.3458 45.4107 61.049 46.4319 61.049H46.5173C47.4962 61.049 48.2619 61.3458 48.8584 61.9846Z" fill="white"/>
<path fill-rule="evenodd" clip-rule="evenodd" d="M14.5563 53.8145H8.8099L0 70.7936H5.10764L6.68211 67.3478H15.9185L17.4075 70.7936H22.8543L14.5563 53.8145ZM14.3431 64.0711L8.25658 64.0702L11.32 57.8559L11.4487 57.559L14.3431 64.0711Z" fill="white"/>
<path d="M23.6218 53.8145V70.7936H28.1319V53.8145H23.6218Z" fill="white"/>
</svg>
